bernoullicharts/arcsin_x_sqrt_1-x_x_-1_bound.svg

<?xml version="1.0" encoding="utf-8" standalone="no"?>
<!DOCTYPE svg PUBLIC "-//W3C//DTD SVG 1.1//EN"
  "http://www.w3.org/Graphics/SVG/1.1/DTD/svg11.dtd">
<!-- Created with matplotlib (https://matplotlib.org/) -->
<svg height="345.6pt" version="1.1" viewBox="0 0 460.8 345.6" width="460.8pt" xmlns="http://www.w3.org/2000/svg" xmlns:xlink="http://www.w3.org/1999/xlink">
 <defs>
  <style type="text/css">
*{stroke-linecap:butt;stroke-linejoin:round;}
  </style>
 </defs>
 <g id="figure_1">
  <g id="patch_1">
   <path d="M 0 345.6 
L 460.8 345.6 
L 460.8 0 
L 0 0 
z
" style="fill:#ffffff;"/>
  </g>
  <g id="axes_1">
   <g id="patch_2">
    <path d="M 57.6 307.584 
L 414.72 307.584 
L 414.72 41.472 
L 57.6 41.472 
z
" style="fill:#ffffff;"/>
   </g>
   <g id="matplotlib.axis_1">
    <g id="xtick_1">
     <g id="line2d_1">
      <defs>
       <path d="M 0 0 
L 0 3.5 
" id="mcef6f61cdc" style="stroke:#000000;stroke-width:0.8;"/>
      </defs>
      <g>
       <use style="stroke:#000000;stroke-width:0.8;" x="73.800255" xlink:href="#mcef6f61cdc" y="307.584"/>
      </g>
     </g>
     <g id="text_1">
      <text style="font-family:DejaVu Sans;font-size:10px;font-style:normal;font-weight:normal;text-anchor:middle;" transform="rotate(-0, 73.800255, 322.182437)" x="73.800255" y="322.182437">0.0</text>
     </g>
    </g>
    <g id="xtick_2">
     <g id="line2d_2">
      <g>
       <use style="stroke:#000000;stroke-width:0.8;" x="138.744153" xlink:href="#mcef6f61cdc" y="307.584"/>
      </g>
     </g>
     <g id="text_2">
      <text style="font-family:DejaVu Sans;font-size:10px;font-style:normal;font-weight:normal;text-anchor:middle;" transform="rotate(-0, 138.744153, 322.182437)" x="138.744153" y="322.182437">0.2</text>
     </g>
    </g>
    <g id="xtick_3">
     <g id="line2d_3">
      <g>
       <use style="stroke:#000000;stroke-width:0.8;" x="203.688051" xlink:href="#mcef6f61cdc" y="307.584"/>
      </g>
     </g>
     <g id="text_3">
      <text style="font-family:DejaVu Sans;font-size:10px;font-style:normal;font-weight:normal;text-anchor:middle;" transform="rotate(-0, 203.688051, 322.182437)" x="203.688051" y="322.182437">0.4</text>
     </g>
    </g>
    <g id="xtick_4">
     <g id="line2d_4">
      <g>
       <use style="stroke:#000000;stroke-width:0.8;" x="268.631949" xlink:href="#mcef6f61cdc" y="307.584"/>
      </g>
     </g>
     <g id="text_4">
      <text style="font-family:DejaVu Sans;font-size:10px;font-style:normal;font-weight:normal;text-anchor:middle;" transform="rotate(-0, 268.631949, 322.182437)" x="268.631949" y="322.182437">0.6</text>
     </g>
    </g>
    <g id="xtick_5">
     <g id="line2d_5">
      <g>
       <use style="stroke:#000000;stroke-width:0.8;" x="333.575847" xlink:href="#mcef6f61cdc" y="307.584"/>
      </g>
     </g>
     <g id="text_5">
      <text style="font-family:DejaVu Sans;font-size:10px;font-style:normal;font-weight:normal;text-anchor:middle;" transform="rotate(-0, 333.575847, 322.182437)" x="333.575847" y="322.182437">0.8</text>
     </g>
    </g>
    <g id="xtick_6">
     <g id="line2d_6">
      <g>
       <use style="stroke:#000000;stroke-width:0.8;" x="398.519745" xlink:href="#mcef6f61cdc" y="307.584"/>
      </g>
     </g>
     <g id="text_6">
      <text style="font-family:DejaVu Sans;font-size:10px;font-style:normal;font-weight:normal;text-anchor:middle;" transform="rotate(-0, 398.519745, 322.182437)" x="398.519745" y="322.182437">1.0</text>
     </g>
    </g>
    <g id="text_7">
     <text style="font-family:DejaVu Sans;font-size:10px;font-style:normal;font-weight:normal;text-anchor:middle;" transform="rotate(-0, 236.16, 335.860562)" x="236.16" y="335.860562">Input Coin's Heads Probability (λ)</text>
    </g>
   </g>
   <g id="matplotlib.axis_2">
    <g id="ytick_1">
     <g id="line2d_7">
      <defs>
       <path d="M 0 0 
L -3.5 0 
" id="m6a024b0175" style="stroke:#000000;stroke-width:0.8;"/>
      </defs>
      <g>
       <use style="stroke:#000000;stroke-width:0.8;" x="57.6" xlink:href="#m6a024b0175" y="295.488001"/>
      </g>
     </g>
     <g id="text_8">
      <text style="font-family:DejaVu Sans;font-size:10px;font-style:normal;font-weight:normal;text-anchor:end;" transform="rotate(-0, 50.6, 299.28722)" x="50.6" y="299.28722">0.0</text>
     </g>
    </g>
    <g id="ytick_2">
     <g id="line2d_8">
      <g>
       <use style="stroke:#000000;stroke-width:0.8;" x="57.6" xlink:href="#m6a024b0175" y="262.402662"/>
      </g>
     </g>
     <g id="text_9">
      <text style="font-family:DejaVu Sans;font-size:10px;font-style:normal;font-weight:normal;text-anchor:end;" transform="rotate(-0, 50.6, 266.201881)" x="50.6" y="266.201881">0.5</text>
     </g>
    </g>
    <g id="ytick_3">
     <g id="line2d_9">
      <g>
       <use style="stroke:#000000;stroke-width:0.8;" x="57.6" xlink:href="#m6a024b0175" y="229.317323"/>
      </g>
     </g>
     <g id="text_10">
      <text style="font-family:DejaVu Sans;font-size:10px;font-style:normal;font-weight:normal;text-anchor:end;" transform="rotate(-0, 50.6, 233.116541)" x="50.6" y="233.116541">1.0</text>
     </g>
    </g>
    <g id="ytick_4">
     <g id="line2d_10">
      <g>
       <use style="stroke:#000000;stroke-width:0.8;" x="57.6" xlink:href="#m6a024b0175" y="196.231983"/>
      </g>
     </g>
     <g id="text_11">
      <text style="font-family:DejaVu Sans;font-size:10px;font-style:normal;font-weight:normal;text-anchor:end;" transform="rotate(-0, 50.6, 200.031202)" x="50.6" y="200.031202">1.5</text>
     </g>
    </g>
    <g id="ytick_5">
     <g id="line2d_11">
      <g>
       <use style="stroke:#000000;stroke-width:0.8;" x="57.6" xlink:href="#m6a024b0175" y="163.146644"/>
      </g>
     </g>
     <g id="text_12">
      <text style="font-family:DejaVu Sans;font-size:10px;font-style:normal;font-weight:normal;text-anchor:end;" transform="rotate(-0, 50.6, 166.945863)" x="50.6" y="166.945863">2.0</text>
     </g>
    </g>
    <g id="ytick_6">
     <g id="line2d_12">
      <g>
       <use style="stroke:#000000;stroke-width:0.8;" x="57.6" xlink:href="#m6a024b0175" y="130.061305"/>
      </g>
     </g>
     <g id="text_13">
      <text style="font-family:DejaVu Sans;font-size:10px;font-style:normal;font-weight:normal;text-anchor:end;" transform="rotate(-0, 50.6, 133.860523)" x="50.6" y="133.860523">2.5</text>
     </g>
    </g>
    <g id="ytick_7">
     <g id="line2d_13">
      <g>
       <use style="stroke:#000000;stroke-width:0.8;" x="57.6" xlink:href="#m6a024b0175" y="96.975965"/>
      </g>
     </g>
     <g id="text_14">
      <text style="font-family:DejaVu Sans;font-size:10px;font-style:normal;font-weight:normal;text-anchor:end;" transform="rotate(-0, 50.6, 100.775184)" x="50.6" y="100.775184">3.0</text>
     </g>
    </g>
    <g id="ytick_8">
     <g id="line2d_14">
      <g>
       <use style="stroke:#000000;stroke-width:0.8;" x="57.6" xlink:href="#m6a024b0175" y="63.890626"/>
      </g>
     </g>
     <g id="text_15">
      <text style="font-family:DejaVu Sans;font-size:10px;font-style:normal;font-weight:normal;text-anchor:end;" transform="rotate(-0, 50.6, 67.689845)" x="50.6" y="67.689845">3.5</text>
     </g>
    </g>
    <g id="text_16">
     <text style="font-family:DejaVu Sans;font-size:10px;font-style:normal;font-weight:normal;text-anchor:middle;" transform="rotate(-90, 28.617187, 174.528)" x="28.617187" y="174.528">Coin Flips Needed</text>
    </g>
   </g>
   <g id="line2d_15">
    <path clip-path="url(#p0a6d740421)" d="M 73.832727 229.327248 
L 77.112066 230.325665 
L 80.391405 231.316476 
L 83.670744 232.299936 
L 86.950083 233.276287 
L 90.229421 234.24576 
L 93.50876 235.208574 
L 96.788099 236.164939 
L 100.067438 237.115054 
L 103.346777 238.059107 
L 106.626116 238.997278 
L 109.905455 239.929734 
L 113.184793 240.856637 
L 116.464132 241.778137 
L 119.743471 242.694375 
L 123.02281 243.605484 
L 126.302149 244.511588 
L 129.581488 245.412802 
L 132.860826 246.309234 
L 136.140165 247.200981 
L 139.419504 248.088134 
L 142.698843 248.970774 
L 145.978182 249.848976 
L 149.257521 250.722804 
L 152.53686 251.592317 
L 155.816198 252.457563 
L 159.095537 253.318584 
L 162.374876 254.175412 
L 165.654215 255.028073 
L 168.933554 255.876583 
L 172.212893 256.72095 
L 175.492231 257.561175 
L 178.77157 258.39725 
L 182.050909 259.229157 
L 185.330248 260.056873 
L 188.609587 260.880364 
L 191.888926 261.699587 
L 195.168264 262.514491 
L 198.447603 263.325017 
L 201.726942 264.131096 
L 205.006281 264.93265 
L 208.28562 265.729592 
L 211.564959 266.521825 
L 214.844298 267.309244 
L 218.123636 268.091733 
L 221.402975 268.869166 
L 224.682314 269.641408 
L 227.961653 270.408314 
L 231.240992 271.169728 
L 234.520331 271.925484 
L 237.799669 272.675405 
L 241.079008 273.419303 
L 244.358347 274.156981 
L 247.637686 274.888229 
L 250.917025 275.612826 
L 254.196364 276.33054 
L 257.475702 277.041128 
L 260.755041 277.744335 
L 264.03438 278.439893 
L 267.313719 279.127524 
L 270.593058 279.806937 
L 273.872397 280.477829 
L 277.151736 281.139884 
L 280.431074 281.792775 
L 283.710413 282.436161 
L 286.989752 283.069691 
L 290.269091 283.693 
L 293.54843 284.305709 
L 296.827769 284.90743 
L 300.107107 285.49776 
L 303.386446 286.076284 
L 306.665785 286.642577 
L 309.945124 287.196199 
L 313.224463 287.7367 
L 316.503802 288.263617 
L 319.78314 288.776477 
L 323.062479 289.274795 
L 326.341818 289.758075 
L 329.621157 290.225812 
L 332.900496 290.677489 
L 336.179835 291.112582 
L 339.459174 291.530556 
L 342.738512 291.930869 
L 346.017851 292.312972 
L 349.29719 292.676309 
L 352.576529 293.020316 
L 355.855868 293.344427 
L 359.135207 293.648071 
L 362.414545 293.930674 
L 365.693884 294.19166 
L 368.973223 294.430455 
L 372.252562 294.646483 
L 375.531901 294.839173 
L 378.81124 295.007959 
L 382.090579 295.152278 
L 385.369917 295.271579 
L 388.649256 295.36532 
L 391.928595 295.432974 
L 395.207934 295.47403 
L 398.487273 295.488 
" style="fill:none;stroke:#1f77b4;stroke-linecap:square;stroke-width:1.5;"/>
   </g>
   <g id="line2d_16">
    <path clip-path="url(#p0a6d740421)" d="M 73.832727 58.596972 
L 77.112066 68.125549 
L 80.391405 64.28765 
L 83.670744 65.875746 
L 86.950083 63.228919 
L 90.229421 68.919597 
L 93.50876 67.728525 
L 96.788099 65.346381 
L 100.067438 72.625155 
L 103.346777 66.405112 
L 106.626116 71.698766 
L 109.905455 69.978328 
L 113.184793 69.845987 
L 116.464132 65.875746 
L 119.743471 75.139641 
L 123.02281 69.978328 
L 126.302149 72.228131 
L 129.581488 75.536665 
L 132.860826 69.448963 
L 136.140165 73.419204 
L 139.419504 69.713646 
L 142.698843 74.874959 
L 145.978182 73.286862 
L 149.257521 73.02218 
L 152.53686 73.286862 
L 155.816198 75.536665 
L 159.095537 78.051151 
L 162.374876 75.404324 
L 165.654215 79.771589 
L 168.933554 77.257103 
L 172.212893 75.0073 
L 175.492231 74.213252 
L 178.77157 75.669007 
L 182.050909 75.933689 
L 185.330248 81.359685 
L 188.609587 79.639247 
L 191.888926 78.448175 
L 195.168264 75.669007 
L 198.447603 77.124762 
L 201.726942 78.051151 
L 205.006281 80.433296 
L 208.28562 80.036271 
L 211.564959 81.88905 
L 214.844298 80.565637 
L 218.123636 80.433296 
L 221.402975 80.565637 
L 224.682314 82.947781 
L 227.961653 81.756709 
L 231.240992 81.624368 
L 234.520331 81.756709 
L 237.799669 81.88905 
L 241.079008 85.197584 
L 244.358347 80.697978 
L 247.637686 78.977541 
L 250.917025 83.080123 
L 254.196364 84.932902 
L 257.475702 80.962661 
L 260.755041 83.609488 
L 264.03438 83.741829 
L 267.313719 80.433296 
L 270.593058 80.697978 
L 273.872397 88.903142 
L 277.151736 84.80056 
L 280.431074 83.609488 
L 283.710413 78.183492 
L 286.989752 81.095002 
L 290.269091 84.535878 
L 293.54843 82.947781 
L 296.827769 83.874171 
L 300.107107 82.286075 
L 303.386446 83.344805 
L 306.665785 80.697978 
L 309.945124 84.403536 
L 313.224463 79.90393 
L 316.503802 75.0073 
L 319.78314 85.462267 
L 323.062479 85.065243 
L 326.341818 82.418416 
L 329.621157 74.213252 
L 332.900496 82.947781 
L 336.179835 71.963449 
L 339.459174 80.433296 
L 342.738512 80.83032 
L 346.017851 69.581304 
L 349.29719 83.609488 
L 352.576529 75.271983 
L 355.855868 75.139641 
L 359.135207 74.345593 
L 362.414545 73.551545 
L 365.693884 73.551545 
L 368.973223 71.169401 
L 372.252562 75.801348 
L 375.531901 76.463055 
L 378.81124 74.213252 
L 382.090579 62.170188 
L 385.369917 69.845987 
L 388.649256 53.568 
L 391.928595 67.331501 
L 395.207934 54.229707 
L 398.487273 58.46463 
" style="fill:none;stroke:#ff7f0e;stroke-linecap:square;stroke-width:1.5;"/>
   </g>
   <g id="patch_3">
    <path d="M 57.6 307.584 
L 57.6 41.472 
" style="fill:none;stroke:#000000;stroke-linecap:square;stroke-linejoin:miter;stroke-width:0.8;"/>
   </g>
   <g id="patch_4">
    <path d="M 414.72 307.584 
L 414.72 41.472 
" style="fill:none;stroke:#000000;stroke-linecap:square;stroke-linejoin:miter;stroke-width:0.8;"/>
   </g>
   <g id="patch_5">
    <path d="M 57.6 307.584 
L 414.72 307.584 
" style="fill:none;stroke:#000000;stroke-linecap:square;stroke-linejoin:miter;stroke-width:0.8;"/>
   </g>
   <g id="patch_6">
    <path d="M 57.6 41.472 
L 414.72 41.472 
" style="fill:none;stroke:#000000;stroke-linecap:square;stroke-linejoin:miter;stroke-width:0.8;"/>
   </g>
   <g id="text_17">
    <text style="font-family:DejaVu Sans;font-size:12px;font-style:normal;font-weight:normal;text-anchor:middle;" transform="rotate(-0, 236.16, 35.472)" x="236.16" y="35.472">Coin Flips for arcsin(x)+sqrt(1-x*x)-1</text>
   </g>
   <g id="legend_1">
    <g id="patch_7">
     <path d="M 164.445 190.706125 
L 407.72 190.706125 
Q 409.72 190.706125 409.72 188.706125 
L 409.72 160.349875 
Q 409.72 158.349875 407.72 158.349875 
L 164.445 158.349875 
Q 162.445 158.349875 162.445 160.349875 
L 162.445 188.706125 
Q 162.445 190.706125 164.445 190.706125 
z
" style="fill:#ffffff;opacity:0.8;stroke:#cccccc;stroke-linejoin:miter;"/>
    </g>
    <g id="line2d_17">
     <path d="M 166.445 166.448312 
L 186.445 166.448312 
" style="fill:none;stroke:#1f77b4;stroke-linecap:square;stroke-width:1.5;"/>
    </g>
    <g id="line2d_18"/>
    <g id="text_18">
     <text style="font-family:DejaVu Sans;font-size:10px;font-style:normal;font-weight:normal;text-anchor:start;" transform="rotate(-0, 194.445, 169.948312)" x="194.445" y="169.948312">Coin Flip Lower Bound</text>
    </g>
    <g id="line2d_19">
     <path d="M 166.445 181.126437 
L 186.445 181.126437 
" style="fill:none;stroke:#ff7f0e;stroke-linecap:square;stroke-width:1.5;"/>
    </g>
    <g id="line2d_20"/>
    <g id="text_19">
     <text style="font-family:DejaVu Sans;font-size:10px;font-style:normal;font-weight:normal;text-anchor:start;" transform="rotate(-0, 194.445, 184.626437)" x="194.445" y="184.626437">Avg. Coins Flipped arcsin(x)+sqrt(1-x*x)-1</text>
    </g>
   </g>
  </g>
 </g>
 <defs>
  <clipPath id="p0a6d740421">
   <rect height="266.112" width="357.12" x="57.6" y="41.472"/>
  </clipPath>
 </defs>
</svg>

<svg height="460.8" viewBox="0 0 460.8 345.6" width="614.4" xmlns="http://www.w3.org/2000/svg" xmlns:xlink="http://www.w3.org/1999/xlink"><defs><style>*{stroke-linecap:butt;stroke-linejoin:round}</style></defs><g id="figure_1"><path d="M0 345.6h460.8V0H0z" fill="#fff" id="patch_1"/><g id="axes_1"><path d="M57.6 307.584h357.12V41.472H57.6z" fill="#fff" id="patch_2"/><g id="matplotlib.axis_1"><g id="xtick_1"><g id="line2d_1"><defs><path d="M0 0v3.5" id="mcef6f61cdc" stroke="#000" stroke-width=".8"/></defs><use x="73.8" xlink:href="#mcef6f61cdc" y="307.584" stroke="#000" stroke-width=".8"/></g><text x="73.8" y="322.182" font-family="DejaVu Sans" font-size="10" font-weight="400" text-anchor="middle" id="text_1">0.0</text></g><g id="xtick_2"><use x="138.744" xlink:href="#mcef6f61cdc" y="307.584" stroke="#000" stroke-width=".8" id="line2d_2"/><text x="138.744" y="322.182" font-family="DejaVu Sans" font-size="10" font-weight="400" text-anchor="middle" id="text_2">0.2</text></g><g id="xtick_3"><use x="203.688" xlink:href="#mcef6f61cdc" y="307.584" stroke="#000" stroke-width=".8" id="line2d_3"/><text x="203.688" y="322.182" font-family="DejaVu Sans" font-size="10" font-weight="400" text-anchor="middle" id="text_3">0.4</text></g><g id="xtick_4"><use x="268.632" xlink:href="#mcef6f61cdc" y="307.584" stroke="#000" stroke-width=".8" id="line2d_4"/><text x="268.632" y="322.182" font-family="DejaVu Sans" font-size="10" font-weight="400" text-anchor="middle" id="text_4">0.6</text></g><g id="xtick_5"><use x="333.576" xlink:href="#mcef6f61cdc" y="307.584" stroke="#000" stroke-width=".8" id="line2d_5"/><text x="333.576" y="322.182" font-family="DejaVu Sans" font-size="10" font-weight="400" text-anchor="middle" id="text_5">0.8</text></g><g id="xtick_6"><use x="398.52" xlink:href="#mcef6f61cdc" y="307.584" stroke="#000" stroke-width=".8" id="line2d_6"/><text x="398.52" y="322.182" font-family="DejaVu Sans" font-size="10" font-weight="400" text-anchor="middle" id="text_6">1.0</text></g><text x="236.16" y="335.861" font-family="DejaVu Sans" font-size="10" font-weight="400" text-anchor="middle" id="text_7">Input Coin&apos;s Heads Probability (λ)</text></g><g id="matplotlib.axis_2"><g id="ytick_1"><g id="line2d_7"><defs><path d="M0 0h-3.5" id="m6a024b0175" stroke="#000" stroke-width=".8"/></defs><use x="57.6" xlink:href="#m6a024b0175" y="295.488" stroke="#000" stroke-width=".8"/></g><text x="50.6" y="299.287" font-family="DejaVu Sans" font-size="10" font-weight="400" text-anchor="end" id="text_8">0.0</text></g><g id="ytick_2"><use x="57.6" xlink:href="#m6a024b0175" y="262.403" stroke="#000" stroke-width=".8" id="line2d_8"/><text x="50.6" y="266.202" font-family="DejaVu Sans" font-size="10" font-weight="400" text-anchor="end" id="text_9">0.5</text></g><g id="ytick_3"><use x="57.6" xlink:href="#m6a024b0175" y="229.317" stroke="#000" stroke-width=".8" id="line2d_9"/><text x="50.6" y="233.117" font-family="DejaVu Sans" font-size="10" font-weight="400" text-anchor="end" id="text_10">1.0</text></g><g id="ytick_4"><use x="57.6" xlink:href="#m6a024b0175" y="196.232" stroke="#000" stroke-width=".8" id="line2d_10"/><text x="50.6" y="200.031" font-family="DejaVu Sans" font-size="10" font-weight="400" text-anchor="end" id="text_11">1.5</text></g><g id="ytick_5"><use x="57.6" xlink:href="#m6a024b0175" y="163.147" stroke="#000" stroke-width=".8" id="line2d_11"/><text x="50.6" y="166.946" font-family="DejaVu Sans" font-size="10" font-weight="400" text-anchor="end" id="text_12">2.0</text></g><g id="ytick_6"><use x="57.6" xlink:href="#m6a024b0175" y="130.061" stroke="#000" stroke-width=".8" id="line2d_12"/><text x="50.6" y="133.861" font-family="DejaVu Sans" font-size="10" font-weight="400" text-anchor="end" id="text_13">2.5</text></g><g id="ytick_7"><use x="57.6" xlink:href="#m6a024b0175" y="96.976" stroke="#000" stroke-width=".8" id="line2d_13"/><text x="50.6" y="100.775" font-family="DejaVu Sans" font-size="10" font-weight="400" text-anchor="end" id="text_14">3.0</text></g><g id="ytick_8"><use x="57.6" xlink:href="#m6a024b0175" y="63.891" stroke="#000" stroke-width=".8" id="line2d_14"/><text x="50.6" y="67.69" font-family="DejaVu Sans" font-size="10" font-weight="400" text-anchor="end" id="text_15">3.5</text></g><text transform="rotate(-90 28.617 174.528)" x="28.617" y="174.528" font-family="DejaVu Sans" font-size="10" font-weight="400" text-anchor="middle" id="text_16">Coin Flips Needed</text></g><path clip-path="url(#p0a6d740421)" d="M73.833 229.327l3.28.999 3.278.99 3.28.984 3.28.976 3.278.97 3.28.963 3.28.956 3.278.95 3.28.944 3.28.938 3.278.933 3.28.927 3.28.921 3.278.916 3.28.911 3.28.907 3.278.9 3.28.897 3.28.892 3.279.887 3.279.883 3.28.878 3.279.874 3.279.87 3.28.865 3.279.86 3.279.857 3.28.853 3.279.849 3.279.844 3.28.84 3.279.836 3.279.832 3.28.828 3.279.823 3.279.82 3.28.814 3.279.811 3.279.806 3.28.802 3.279.797 3.279.792 3.28.787 3.279.783 3.279.777 3.28.772 3.279.767 3.279.762 3.28.755 3.279.75 3.279.744 3.28.738 3.279.731 3.279.725 3.28.718 3.279.71 3.279.703 3.28.696 3.279.688 3.28.679 3.278.67 3.28.663 3.28.653 3.278.643 3.28.634 3.28.623 3.278.613 3.28.601 3.28.59 3.278.58 3.28.566 3.28.553 3.278.54 3.28.528 3.28.512 3.278.499 3.28.483 3.28.468 3.278.451 3.28.436 3.28.418 3.279.4 3.279.382 3.28.363 3.279.344 3.279.324 3.28.304 3.279.283 3.279.26 3.28.24 3.279.215 3.279.193 3.28.169 3.279.144 3.279.12 3.28.093 3.279.068 3.279.041 3.28.014" fill="none" stroke="#1f77b4" stroke-linecap="square" stroke-width="1.5" id="line2d_15"/><path clip-path="url(#p0a6d740421)" d="M73.833 58.597l3.28 9.529 3.278-3.838 3.28 1.588 3.28-2.647 3.278 5.69 3.28-1.19 3.28-2.383 3.278 7.28 3.28-6.22 3.28 5.293 3.278-1.72 3.28-.133 3.28-3.97 3.278 9.264 3.28-5.162 3.28 2.25 3.278 3.309 3.28-6.088 3.28 3.97 3.279-3.705 3.279 5.161 3.28-1.588 3.279-.265 3.279.265 3.28 2.25 3.279 2.514 3.279-2.647 3.28 4.368 3.279-2.515 3.279-2.25 3.28-.794 3.279 1.456 3.279.265 3.28 5.426 3.279-1.72 3.279-1.192 3.28-2.779 3.279 1.456 3.279.926 3.28 2.382 3.279-.397 3.279 1.853 3.28-1.323 3.279-.133 3.279.133 3.28 2.382 3.279-1.191 3.279-.133 3.28.133 3.279.132 3.279 3.309 3.28-4.5 3.279-1.72 3.279 4.102 3.28 1.853 3.279-3.97 3.279 2.646 3.28.133 3.279-3.309 3.28.265 3.278 8.205 3.28-4.102 3.28-1.192 3.278-5.426 3.28 2.912 3.28 3.44 3.278-1.587 3.28.926 3.28-1.588 3.278 1.059 3.28-2.647 3.28 3.706 3.278-4.5 3.28-4.897 3.28 10.455 3.278-.397 3.28-2.647 3.28-8.205 3.278 8.735 3.28-10.985 3.28 8.47 3.279.397 3.279-11.249 3.28 14.028 3.279-8.337 3.279-.132 3.28-.794 3.279-.794h3.279l3.28-2.383 3.279 4.632 3.279.662 3.28-2.25 3.279-12.043 3.279 7.676 3.28-16.278 3.279 13.764 3.279-13.102 3.28 4.235" fill="none" stroke="#ff7f0e" stroke-linecap="square" stroke-width="1.5" id="line2d_16"/><path d="M57.6 307.584V41.472" fill="none" stroke="#000" stroke-linecap="square" stroke-width=".8" id="patch_3"/><path d="M414.72 307.584V41.472" fill="none" stroke="#000" stroke-linecap="square" stroke-width=".8" id="patch_4"/><path d="M57.6 307.584h357.12" fill="none" stroke="#000" stroke-linecap="square" stroke-width=".8" id="patch_5"/><path d="M57.6 41.472h357.12" fill="none" stroke="#000" stroke-linecap="square" stroke-width=".8" id="patch_6"/><text x="236.16" y="35.472" font-family="DejaVu Sans" font-size="12" font-weight="400" text-anchor="middle" id="text_17">Coin Flips for arcsin(x)+sqrt(1-x*x)-1</text><g id="legend_1"><path d="M164.445 190.706H407.72q2 0 2-2V160.35q0-2-2-2H164.445q-2 0-2 2v28.356q0 2 2 2z" fill="#fff" opacity=".8" stroke="#ccc" id="patch_7"/><path d="M166.445 166.448h20" fill="none" stroke="#1f77b4" stroke-linecap="square" stroke-width="1.5" id="line2d_17"/><text x="194.445" y="169.948" font-family="DejaVu Sans" font-size="10" font-weight="400" id="text_18">Coin Flip Lower Bound</text><path d="M166.445 181.126h20" fill="none" stroke="#ff7f0e" stroke-linecap="square" stroke-width="1.5" id="line2d_19"/><text x="194.445" y="184.626" font-family="DejaVu Sans" font-size="10" font-weight="400" id="text_19">Avg. Coins Flipped arcsin(x)+sqrt(1-x*x)-1</text></g></g></g><defs><clipPath id="p0a6d740421"><path d="M57.6 41.472h357.12v266.112H57.6z"/></clipPath></defs></svg>
